!!!!SEGMENT: pl-sa--598-a-ix-78--001_anonim--la-rose-contredanse.krn
!!!cenid: 18xx:640
!!!COM: Anonim
!!!COM-rismID: pe30004985
!!!CDT:
!!!CNT:
!!!OTL: La rose - Contredanse
!!!PDT:
!!!AGN: Secular; Contradance
!!!SMS-siglum: PL-SA
!!!SMS-shelfmark: 598/A IX 78
!!!SMS-shelfwork: 001 W
!!!SMS-variant:
!!!SMS-altvar:
!!!NIFC-rismSourceID: 1001092517
!!!NIFC-rismChildID: 1001092517
!!!NIFC-islandoraID: none
!!!URL-pdf-islandora:
!!!URL-scan: https://bc.bdsandomierz.pl/dlibra/publication/1406/edition/1374/content @EN{Scan in the Sandomierz Diocese Digital Library} @PL{Skany w portalu Cyfrowa Biblioteka Diecezjalna w Sandomierzu}
!!!IIIF:
!!!ONB-nifc: Str. 1, s. 1-3
!!!AIN: 1 piano
!!!key:
**kern	**kern	**dynam
*part1	*part1	*part1
*staff2	*staff1	*
*Ipiano	*Iempty	*
*I"Piano	*	*
*I'P-no	*	*
*clefF4	*clefG2	*
*k[f#]	*k[f#]	*
*G:	*G:	*
*M2/4	*M2/4	*
*>[A,B,C,B]	*>[A,B,C,B]	*
*>A	*>A	*
!	!LO:TX:a:i:t=La rose	!
!	!LO:TX:a:i:t=Contre danse	!
4r	8.r	.
.	16g/	.
!LO:TX:a:t=[segno]:problem=znak segno na kresce	!LO:TX:a:t=[segno]:problem=znak segno na kresce	!
=1||	=1||	=1||
*>B	*>B	*
4d 4B 4G\	4b 4g/	ff
4d 4B 4G\	4dd 4b 4g/	.
=2	=2	=2
4.d 4.B 4.G\	4.gg 4.dd 4.b 4.g\	.
8B\	8g 8d/	.
=3	=3	=3
8c\L	8f#L 8d/	.
8B\	8g 8d/	.
8A\	8a 8f# 8d/	.
8G\J	8bJ 8g 8d/	.
=4	=4	=4
8AL 8F# 8D\	8ccL 8a 8f# 8d/	.
8AJ 8F# 8D\	8aJ 8f# 8d/	.
4r	8.r	.
.	16a/	.
=5	=5	=5
4A 4F# 4D\	4dd 4a\	.
4A 4F# 4D\	4ff# 4dd 4a\	.
=6	=6	=6
4.A 4.F# 4.D\	4.aa 4.ff# 4.dd 4.cc\	.
8D#X\	8cc 8a 8f#/	.
=7	=7	=7
8E\L	8bL 8g/	.
8C\	8ee 8cc/	.
8D#X\	8dd 8b/	.
8E\J	8f#J 8d 8c/	.
=	=	=
8DL 8GG/	8gL 8d 8B/	.
8DJ 8BB 8GG/	8gJ 8d 8B/	.
8r	8r	.
=8||	=8||	=8||
*k[f#]	*k[f#]	*
!	!LO:TX:a:i:t=Con delicatezza	!
8r	16r	.
.	16dd 16d/	.
=9	=9	=9
8G\L|	(16b/LL	pp
.	16g/)	.
8d\|	16f#/	.
.	16g/JJ	.
8A\|	(16cc/LL	.
.	16a/)	.
8d\J|	16g#X/	.
.	16a/JJ	.
=10	=10	=10
8.B\L	(16dd/LL	.
.	16b/)	.
.	16a#X/	.
8.d\J	16b/JJ	.
.	(16gg\LL	.
.	16ff#\)	.
8ryy	16ee\	.
.	16dd\JJ	.
=11	=11	=11
8F#\L	16cc\LL	.
.	16ee\	.
8d\	16dd\	.
.	16cc\JJ	.
8G\	16b\LL	.
.	16dd\	.
8d\J	16cc\	.
.	16b\JJ	.
=12	=12	=12
4.d 4.A 4.F# 4.D\	(16a\LL	.
.	16b\	.
.	16cc#X\	.
.	16dd\JJ)	.
.	8d/L	.
8r	16r	.
.	16d/Jk	.
!!LO:LB:g=original
=13	=13	=13
8G\L	16b/LL	.
.	16g/	.
8d\	16f#/	.
.	16g/JJ	.
8A\	16cc/LL	.
.	16a/	.
8d\J	16g#X/	.
.	16a/JJ	.
=14	=14	=14
8.B\L	16dd/LL	.
.	16b/	.
.	16a#X/	.
8.d\J	16b/JJ	.
.	16gg\LL	.
.	16ff#\	.
8ryy	16ee\	.
.	16dd\JJ	.
=15	=15	=15
*^	*	*
2A/	8A\L	16a#X\LL	.
.	.	16bb\	.
!	!	!LO:SIC:s=16aa#	!
.	8g\	16aa\	.
.	.	16gg\JJ	.
.	8e\	16ff#\LL	.
.	.	16ee\	.
.	8g\J	16dd\	.
.	.	16cc\JJ	.
*v	*v	*	*
=16	=16	=16
!	!LO:TX:a:t=P:problem=mixed beam	!
16a 16f#\	16dd\LL	.
16r	16d/	.
8r	16c#X/	.
.	16d/JJ	.
4r	16e/LL	.
.	16f#/	.
.	16g/	.
.	16a/JJ	.
!LO:TX:a:t=[segno]:problem=znak segno na kresce	!LO:TX:a:t=[segno]:problem=znak segno na kresce	!
=17||	=17||	=17||
*>C	*>C	*
!	!LO:TX:b:i:t=Mineur	!
8r	8b/	pp
*clefG2	*	*
8ryy	32b/LLL	.
.	32a/	.
.	32g#X/	.
.	32a/JJJ	.
=18	=18	=18
16e/LL	8gg\L	.
16g/JJ	.	.
16f#/LL	8ff#\	.
16a/JJ	.	.
16g/LL	8ee\	.
16b/JJ	.	.
16a/LL	8dd#X\J	.
16cc/JJ	.	.
=19	=19	=19
16g/LL	8ee\L	.
16b/JJ	.	.
16f#/LL	8b\	.
16a/JJ	.	.
16e/LL	8b\	.
16g/JJ	.	.
16d#X/LL	8b\J	.
16f#/JJ	.	.
=20	=20	=20
16e/LL	8gg\L	.
16g/JJ	.	.
16f#/LL	8ff#\	.
16a/JJ	.	.
16g/LL	8ee\	.
16b/JJ	.	.
16a/LL	8dd#X\J	.
16cc/JJ	.	.
=21	=21	=21
*	*Xtuplet	*
16g/LL	12ee\L	.
16b/JJ	.	.
.	12ff#\	.
16f#/LL	.	.
.	12gg\J	.
16a/JJ	.	.
16e/LL	8a/	.
16g/JJ	.	.
8r	32b/LLL	.
.	32a/	.
.	32g#X/	.
.	32a/JJJ	.
=22	=22	=22
16d/LL	8ff#\L	.
16f#/JJ	.	.
16e/LL	8ee\	.
16g/JJ	.	.
16f#/LL	8dd\	.
16a/JJ	.	.
16g/LL	8cc#X\J	.
16b/JJ	.	.
=23	=23	=23
16f#/LL	8dd\L	.
16a/JJ	.	.
16e/LL	8a\	.
16g/JJ	.	.
16d/LL	8a\	.
16f#/JJ	.	.
16c#X/LL	8a\J	.
16e/JJ	.	.
=24	=24	=24
16d/LL	8ff#\L	.
16f#/JJ	.	.
16e/LL	8ee\	.
16g/JJ	.	.
!LO:TX:a:t=P:problem=urwana kartka	!	!
4ryy	8dd\	.
.	8cc#X\J	.
!!LO:LB:g=original
=25	=25	=25
!	!LO:SIC:v=segno	!
!	!LO:TX:a:t=P:problem=mixed beam	!
16a 16f# 16d\	16dd/LL	.
16r	16d/	.
8r	16c/	.
.	16d/JJ	.
4r	16e/LL	.
.	16f#/	.
.	16g/	.
!	!LO:TX:b:i:t=D.C.	!
.	16a/JJ	.
!LO:TX:a:t=[segno]:problem=znak segno na kresce	!LO:TX:a:t=[segno]:problem=znak segno na kresce	!
=||	=||	=||
*-	*-	*-
!!!system-decoration: {s1,s2}
!!!RDF**kern: | = vertical stroke
!!!ENC: Marta Lawrence
!!!END: 2020-12-14
!!!ENC: Kamil Watkowski
!!!END: 2020-06-19
!!!YEC: Copyright 2022 Narodowy Instytut Fryderyka Chopina (https://polishscores.org)
!!!YEM: License CC-BY-4.0 (https://creativecommons.org/licenses/by/4.0)
